;FLAVOR:Marlin
;TIME:18570
;Filament used: 17.0644m
;Layer height: 0.2
;MINX:59.87
;MINY:68.2
;MINZ:0.3
;MAXX:143.47
;MAXY:151.8
;MAXZ:80.1
;Generated with Cura_SteamEngine master
M140 S90
M105
M190 S90
M104 S232
M105
M109 S232
M82 ;absolute extrusion mode
G21 ;metric values
G90 ;absolute positioning
M82 ;set extruder to absolute mode
M107 ;start with the fan off
G28 X0 Y0 ;move X/Y to min endstops
G28 Z0 ;move Z to min endstops
G1 Z15.0 F60 ;move the platform down 15mm
G92 E0 ;zero the extruded length
G1 F200 E3 ;extrude 3mm of feed stock
G92 E0 ;zero the extruded length again
G1 F60
M117 Printing...
G5
G92 E0
G92 E0
G1 F1500 E-6.5
;LAYER_COUNT:400
;LAYER:0
M107
M204 S300
M205 X8.18 Y8.18
G0 F1800 X72.182 Y80.374 Z0.3
M205 X3 Y3
;TYPE:SKIRT
G1 F1500 E0
G1 F1200 X72.774 Y79.852 E0.03938
G1 X73.416 Y79.393 E0.07875
G1 X74.102 Y79.001 E0.11817
G1 X74.643 Y78.752 E0.14788
G1 X98.685 Y68.793 E1.44618
G1 X99.429 Y68.528 E1.48558
G1 X100.196 Y68.34 E1.52498
G1 X100.978 Y68.23 E1.56438
G1 X101.767 Y68.2 E1.60377
G1 X102.555 Y68.249 E1.64316
G1 X103.334 Y68.379 E1.68256
G1 X104.096 Y68.586 E1.72195
G1 X104.655 Y68.793 E1.75169
G1 X128.697 Y78.752 E3.04999
G1 X129.41 Y79.091 E3.08938
G1 X130.086 Y79.5 E3.12879
G1 X130.716 Y79.975 E3.16816
G1 X131.296 Y80.512 E3.20759
G1 X131.818 Y81.104 E3.24697
G1 X132.277 Y81.746 E3.28634
G1 X132.669 Y82.432 E3.32576
G1 X132.918 Y82.973 E3.35547
G1 X142.877 Y107.015 E4.65377
G1 X143.142 Y107.759 E4.69317
G1 X143.33 Y108.526 E4.73257
G1 X143.44 Y109.308 E4.77197
G1 X143.47 Y110.097 E4.81136
G1 X143.421 Y110.885 E4.85075
G1 X143.291 Y111.664 E4.89015
G1 X143.084 Y112.426 E4.92954
G1 X142.877 Y112.985 E4.95928
G1 X132.918 Y137.027 E6.25758
G1 X132.579 Y137.74 E6.29697
G1 X132.17 Y138.416 E6.33639
G1 X131.695 Y139.046 E6.37575
G1 X131.158 Y139.626 E6.41518
G1 X130.566 Y140.148 E6.45456
G1 X129.924 Y140.607 E6.49393
G1 X129.238 Y140.999 E6.53335
G1 X128.697 Y141.248 E6.56306
G1 X104.655 Y151.207 E7.86136
G1 X103.911 Y151.472 E7.90076
G1 X103.144 Y151.66 E7.94016
G1 X102.362 Y151.77 E7.97956
G1 X101.573 Y151.8 E8.01895
G1 X100.785 Y151.751 E8.05834
G1 X100.006 Y151.621 E8.09774
G1 X99.244 Y151.414 E8.13714
G1 X98.685 Y151.207 E8.16688
G1 X74.643 Y141.248 E9.46517
G1 X73.93 Y140.909 E9.50456
G1 X73.254 Y140.5 E9.54398
G1 X72.624 Y140.025 E9.58334
G1 X72.044 Y139.488 E9.62278
G1 X71.522 Y138.896 E9.66215
G1 X71.063 Y138.254 E9.70153
G1 X70.671 Y137.568 E9.74094
G1 X70.422 Y137.027 E9.77066
G1 X60.463 Y112.985 E11.06895
G1 X60.198 Y112.241 E11.10835
G1 X60.01 Y111.474 E11.14775
G1 X59.9 Y110.692 E11.18715
G1 X59.87 Y109.903 E11.22654
G1 X59.919 Y109.115 E11.26593
G1 X60.049 Y108.336 E11.30533
G1 X60.256 Y107.574 E11.34473
G1 X60.463 Y107.015 E11.37447
G1 X70.422 Y82.973 E12.67276
G1 X70.761 Y82.26 E12.71215
G1 X71.17 Y81.584 E12.75157
G1 X71.645 Y80.954 E12.79093
G1 X72.182 Y80.374 E12.83037
M205 X8.18 Y8.18
G0 F1800 X72.519 Y80.605
M205 X3 Y3
G1 F1200 X73.102 Y80.104 E12.86872
G1 X73.734 Y79.665 E12.90711
G1 X74.408 Y79.295 E12.94547
G1 X74.796 Y79.121 E12.96668
G1 X98.838 Y69.162 E14.26498
G1 X99.563 Y68.905 E14.30335
G1 X100.311 Y68.725 E14.34174
G1 X101.073 Y68.623 E14.38009
G1 X101.842 Y68.601 E14.41847
G1 X102.609 Y68.659 E14.45685
G1 X103.366 Y68.796 E14.49523
G1 X104.104 Y69.011 E14.53358
G1 X104.502 Y69.162 E14.55482
G1 X128.544 Y79.121 E15.85311
G1 X129.238 Y79.452 E15.89147
G1 X129.895 Y79.853 E15.92987
G1 X130.506 Y80.321 E15.96827
G1 X131.065 Y80.849 E16.00663
G1 X131.566 Y81.432 E16.04498
G1 X132.005 Y82.064 E16.08337
G1 X132.375 Y82.738 E16.12173
G1 X132.549 Y83.126 E16.14295
G1 X142.508 Y107.168 E17.44124
G1 X142.765 Y107.893 E17.47962
G1 X142.945 Y108.641 E17.518
G1 X143.047 Y109.403 E17.55636
G1 X143.069 Y110.172 E17.59474
G1 X143.011 Y110.939 E17.63311
G1 X142.874 Y111.696 E17.67149
G1 X142.659 Y112.434 E17.70984
G1 X142.508 Y112.832 E17.73108
G1 X132.549 Y136.874 E19.02938
G1 X132.218 Y137.568 E19.06774
G1 X131.817 Y138.225 E19.10614
G1 X131.349 Y138.836 E19.14454
G1 X130.821 Y139.395 E19.1829
G1 X130.238 Y139.896 E19.22125
G1 X129.606 Y140.335 E19.25964
G1 X128.932 Y140.705 E19.298
G1 X128.544 Y140.879 E19.31921
G1 X104.502 Y150.838 E20.61751
G1 X103.777 Y151.095 E20.65589
G1 X103.029 Y151.275 E20.69427
G1 X102.267 Y151.377 E20.73262
G1 X101.498 Y151.399 E20.771
G1 X100.731 Y151.341 E20.80938
G1 X99.974 Y151.204 E20.84776
G1 X99.236 Y150.989 E20.88611
G1 X98.838 Y150.838 E20.90735
G1 X74.796 Y140.879 E22.20564
G1 X74.102 Y140.548 E22.244
G1 X73.445 Y140.147 E22.2824
G1 X72.834 Y139.679 E22.3208
G1 X72.275 Y139.151 E22.35916
G1 X71.774 Y138.568 E22.39751
G1 X71.335 Y137.936 E22.43591
G1 X70.965 Y137.262 E22.47426
G1 X70.791 Y136.874 E22.49548
G1 X60.832 Y112.832 E23.79377
G1 X60.575 Y112.107 E23.83215
G1 X60.395 Y111.359 E23.87053
G1 X60.293 Y110.597 E23.90889
G1 X60.271 Y109.828 E23.94727
G1 X60.329 Y109.061 E23.98565
G1 X60.466 Y108.304 E24.02403
G1 X60.681 Y107.566 E24.06238
G1 X60.832 Y107.168 E24.08361
G1 X70.791 Y83.126 E25.38191
G1 X71.122 Y82.432 E25.42027
G1 X71.523 Y81.775 E25.45867
G1 X71.991 Y81.164 E25.49707
G1 X72.519 Y80.605 E25.53543
M205 X8.18 Y8.18
G0 F1800 X72.854 Y80.838
M205 X3 Y3
G1 F1200 X73.428 Y80.358 E25.57276
G1 X74.05 Y79.942 E25.61009
G1 X74.949 Y79.491 E25.66027
G1 X98.991 Y69.532 E26.95857
G1 X99.697 Y69.283 E26.99592
G1 X100.424 Y69.111 E27.03319
G1 X101.167 Y69.017 E27.07055
G1 X101.915 Y69.003 E27.10788
G1 X102.66 Y69.069 E27.14519
G1 X103.394 Y69.215 E27.18253
G1 X104.349 Y69.532 E27.23273
G1 X128.391 Y79.491 E28.53102
G1 X129.066 Y79.814 E28.56836
G1 X129.702 Y80.207 E28.60565
G1 X130.293 Y80.665 E28.64296
G1 X130.832 Y81.184 E28.68029
G1 X131.312 Y81.758 E28.71762
G1 X131.728 Y82.38 E28.75495
G1 X132.179 Y83.279 E28.80513
G1 X142.138 Y107.321 E30.10342
G1 X142.387 Y108.027 E30.14077
G1 X142.559 Y108.754 E30.17805
G1 X142.653 Y109.497 E30.21541
G1 X142.667 Y110.245 E30.25273
G1 X142.601 Y110.99 E30.29005
G1 X142.455 Y111.724 E30.32738
G1 X142.138 Y112.679 E30.37759
G1 X132.179 Y136.721 E31.67588
G1 X131.856 Y137.396 E31.71321
G1 X131.463 Y138.032 E31.75051
G1 X131.005 Y138.623 E31.78782
G1 X130.486 Y139.162 E31.82515
G1 X129.912 Y139.642 E31.86248
G1 X129.29 Y140.058 E31.89981
G1 X128.391 Y140.509 E31.94999
G1 X104.349 Y150.468 E33.24828
G1 X103.643 Y150.717 E33.28563
G1 X102.916 Y150.889 E33.3229
G1 X102.173 Y150.983 E33.36027
G1 X101.425 Y150.997 E33.39759
G1 X100.68 Y150.931 E33.43491
G1 X99.946 Y150.785 E33.47224
G1 X98.991 Y150.468 E33.52244
G1 X74.949 Y140.509 E34.82074
G1 X74.274 Y140.186 E34.85807
G1 X73.638 Y139.793 E34.89537
G1 X73.047 Y139.335 E34.93267
G1 X72.508 Y138.816 E34.97
G1 X72.028 Y138.242 E35.00733
G1 X71.612 Y137.62 E35.04467
G1 X71.161 Y136.721 E35.09485
G1 X61.202 Y112.679 E36.39314
G1 X60.953 Y111.973 E36.43049
G1 X60.781 Y111.246 E36.46776
G1 X60.687 Y110.503 E36.50513
G1 X60.673 Y109.755 E36.54245
G1 X60.739 Y109.01 E36.57976
G1 X60.885 Y108.276 E36.6171
G1 X61.202 Y107.321 E36.6673
G1 X71.161 Y83.279 E37.9656
G1 X71.484 Y82.604 E38.00293
G1 X71.877 Y81.968 E38.04023
G1 X72.335 Y81.377 E38.07753
G1 X72.854 Y80.838 E38.11486
M205 X8.18 Y8.18
G0 F1800 X73.189 Y81.074
M205 X3 Y3
G1 F1200 X73.753 Y80.615 E38.15114
G1 X74.363 Y80.222 E38.18734
G1 X75.102 Y79.86 E38.2284
G1 X99.144 Y69.901 E39.52669
G1 X99.83 Y69.661 E39.56295
G1 X100.537 Y69.497 E39.59916
G1 X101.259 Y69.412 E39.63543
G1 X101.985 Y69.407 E39.67165
G1 X102.707 Y69.481 E39.70786
G1 X103.417 Y69.635 E39.74411
G1 X104.196 Y69.901 E39.78518
G1 X128.238 Y79.86 E41.08347
G1 X128.893 Y80.175 E41.11973
G1 X129.509 Y80.559 E41.15595
G1 X130.079 Y81.009 E41.19218
G1 X130.596 Y81.519 E41.22841
G1 X131.055 Y82.083 E41.26469
G1 X131.448 Y82.693 E41.30089
G1 X131.81 Y83.432 E41.34194
G1 X141.769 Y107.474 E42.64024
G1 X142.009 Y108.16 E42.6765
G1 X142.173 Y108.867 E42.71271
G1 X142.258 Y109.589 E42.74898
G1 X142.263 Y110.315 E42.7852
G1 X142.189 Y111.037 E42.82141
G1 X142.035 Y111.747 E42.85765
G1 X141.769 Y112.526 E42.89872
G1 X131.81 Y136.568 E44.19702
G1 X131.495 Y137.223 E44.23328
G1 X131.111 Y137.839 E44.26949
G1 X130.661 Y138.409 E44.30572
G1 X130.151 Y138.926 E44.34195
G1 X129.587 Y139.385 E44.37823
G1 X128.977 Y139.778 E44.41443
G1 X128.238 Y140.14 E44.45549
G1 X104.196 Y150.099 E45.75379
G1 X103.51 Y150.339 E45.79004
G1 X102.803 Y150.503 E45.82625
G1 X102.081 Y150.588 E45.86252
G1 X101.355 Y150.593 E45.89874
G1 X100.633 Y150.519 E45.93495
G1 X99.923 Y150.365 E45.9712
G1 X99.144 Y150.099 E46.01227
G1 X75.102 Y140.14 E47.31056
G1 X74.447 Y139.825 E47.34682
G1 X73.831 Y139.441 E47.38304
G1 X73.261 Y138.991 E47.41927
G1 X72.744 Y138.481 E47.4555
G1 X72.285 Y137.917 E47.49178
G1 X71.892 Y137.307 E47.52798
G1 X71.53 Y136.568 E47.56904
G1 X61.571 Y112.526 E48.86733
G1 X61.331 Y111.84 E48.90359
G1 X61.167 Y111.133 E48.9398
G1 X61.082 Y110.411 E48.97607
G1 X61.077 Y109.685 E49.01229
G1 X61.151 Y108.963 E49.0485
G1 X61.305 Y108.253 E49.08474
G1 X61.571 Y107.474 E49.12581
G1 X71.53 Y83.432 E50.42411
G1 X71.845 Y82.777 E50.46037
G1 X72.229 Y82.161 E50.49658
G1 X72.679 Y81.591 E50.53281
G1 X73.189 Y81.074 E50.56905
M205 X8.18 Y8.18
G0 F1800 X73.523 Y81.312
M205 X3 Y3
G1 F1200 X74.076 Y80.876 E50.60418
G1 X74.675 Y80.506 E50.6393
G1 X75.255 Y80.23 E50.67135
G1 X99.297 Y70.271 E51.96964
G1 X99.962 Y70.039 E52.00478
G1 X100.649 Y69.884 E52.03992
G1 X101.348 Y69.807 E52.075
G1 X102.052 Y69.811 E52.11013
G1 X102.751 Y69.894 E52.14524
G1 X103.437 Y70.056 E52.18041
G1 X104.043 Y70.271 E52.21249
G1 X128.085 Y80.23 E53.51079
G1 X128.719 Y80.536 E53.54591
G1 X129.314 Y80.912 E53.58102
G1 X129.863 Y81.353 E53.61616
G1 X130.358 Y81.853 E53.65126
G1 X130.794 Y82.406 E53.68639
G1 X131.164 Y83.005 E53.72152
G1 X131.44 Y83.585 E53.75356
G1 X141.399 Y107.627 E55.05186
G1 X141.631 Y108.292 E55.08699
G1 X141.786 Y108.979 E55.12213
G1 X141.863 Y109.678 E55.15721
G1 X141.859 Y110.382 E55.19234
G1 X141.776 Y111.081 E55.22746
G1 X141.614 Y111.767 E55.26262
G1 X141.399 Y112.373 E55.2947
G1 X131.44 Y136.415 E56.593
G1 X131.134 Y137.049 E56.62812
G1 X130.758 Y137.644 E56.66323
G1 X130.317 Y138.193 E56.69837
G1 X129.817 Y138.688 E56.73347
G1 X129.264 Y139.124 E56.7686
G1 X128.665 Y139.494 E56.80373
G1 X128.085 Y139.77 E56.83577
G1 X104.043 Y149.729 E58.13407
G1 X103.378 Y149.961 E58.16921
G1 X102.691 Y150.116 E58.20434
G1 X101.992 Y150.193 E58.23943
G1 X101.288 Y150.189 E58.27455
G1 X100.589 Y150.106 E58.30967
G1 X99.903 Y149.944 E58.34483
G1 X99.297 Y149.729 E58.37691
G1 X75.255 Y139.77 E59.67521
G1 X74.621 Y139.464 E59.71033
G1 X74.026 Y139.088 E59.74545
G1 X73.477 Y138.647 E59.78058
G1 X72.982 Y138.147 E59.81568
G1 X72.546 Y137.594 E59.85081
G1 X72.176 Y136.995 E59.88594
G1 X71.9 Y136.415 E59.91798
G1 X61.941 Y112.373 E61.21628
G1 X61.709 Y111.708 E61.25142
G1 X61.554 Y111.021 E61.28655
G1 X61.477 Y110.322 E61.32164
G1 X61.481 Y109.618 E61.35676
G1 X61.564 Y108.919 E61.39188
G1 X61.726 Y108.233 E61.42705
G1 X61.941 Y107.627 E61.45913
G1 X71.9 Y83.585 E62.75742
G1 X72.206 Y82.951 E62.79254
G1 X72.582 Y82.356 E62.82766
G1 X73.023 Y81.807 E62.86279
G1 X73.523 Y81.312 E62.89789
M205 X8.18 Y8.18
G0 F1800 X73.365 Y82.025
M205 X3 Y3
G1 F1200 X73.855 Y81.553 E62.93184
G1 X74.397 Y81.141 E62.9658
G1 X74.984 Y80.796 E62.99977
G1 X75.408 Y80.6 E63.02307
G1 X99.45 Y70.641 E64.32137
G1 X100.094 Y70.417 E64.35539
G1 X100.759 Y70.271 E64.38935
G1 X101.436 Y70.204 E64.4233
G1 X102.117 Y70.216 E64.45728
G1 X102.792 Y70.308 E64.49126
G1 X103.451 Y70.479 E64.52523
G1 X103.89 Y70.641 E64.54858
G1 X127.932 Y80.6 E65.84687
G1 X128.544 Y80.897 E65.88081
G1 X129.118 Y81.263 E65.91477
G1 X129.645 Y81.695 E65.94877
G1 X130.117 Y82.185 E65.98271
G1 X130.529 Y82.727 E66.01668
G1 X130.874 Y83.314 E66.05065
G1 X131.07 Y83.738 E66.07395
G1 X141.029 Y107.78 E67.37225
G1 X141.253 Y108.424 E67.40626
G1 X141.399 Y109.089 E67.44023
G1 X141.466 Y109.766 E67.47417
G1 X141.454 Y110.447 E67.50815
G1 X141.362 Y111.122 E67.54214
G1 X141.191 Y111.781 E67.57611
G1 X141.029 Y112.22 E67.59945
G1 X131.07 Y136.262 E68.89775
G1 X130.773 Y136.874 E68.93169
G1 X130.407 Y137.448 E68.96565
G1 X129.975 Y137.975 E68.99965
G1 X129.485 Y138.447 E69.03359
G1 X128.943 Y138.859 E69.06755
G1 X128.356 Y139.204 E69.10152
G1 X127.932 Y139.4 E69.12483
G1 X103.89 Y149.359 E70.42312
G1 X103.246 Y149.583 E70.45714
G1 X102.581 Y149.729 E70.49111
G1 X101.904 Y149.796 E70.52505
G1 X101.223 Y149.784 E70.55903
G1 X100.548 Y149.692 E70.59302
G1 X99.889 Y149.521 E70.62698
G1 X99.45 Y149.359 E70.65033
G1 X75.408 Y139.4 E71.94862
G1 X74.796 Y139.103 E71.98256
G1 X74.222 Y138.737 E72.01653
G1 X73.695 Y138.305 E72.05052
G1 X73.223 Y137.815 E72.08447
G1 X72.811 Y137.273 E72.11843
G1 X72.466 Y136.686 E72.1524
G1 X72.27 Y136.262 E72.1757
G1 X62.311 Y112.22 E73.474
G1 X62.087 Y111.576 E73.50802
G1 X61.941 Y110.911 E73.54198
G1 X61.874 Y110.234 E73.57593
G1 X61.886 Y109.553 E73.60991
G1 X61.978 Y108.878 E73.64389
G1 X62.149 Y108.219 E73.67786
G1 X62.311 Y107.78 E73.70121
G1 X72.27 Y83.738 E74.9995
G1 X72.567 Y83.126 E75.03344
G1 X72.933 Y82.552 E75.0674
G1 X73.365 Y82.025 E75.1014
M205 X8.18 Y8.18
G0 F1800 X73.706 Y82.246
M205 X3 Y3
G1 F1200 X74.186 Y81.797 E75.13419
G1 X74.717 Y81.41 E75.16697
G1 X75.561 Y80.969 E75.21448
G1 X99.603 Y71.01 E76.51278
G1 X100.225 Y70.796 E76.54559
G1 X100.867 Y70.659 E76.57834
G1 X101.521 Y70.601 E76.6111
G1 X102.178 Y70.623 E76.6439
G1 X102.827 Y70.724 E76.67666
G1 X103.737 Y71.01 E76.72425
G1 X127.779 Y80.969 E78.02255
G1 X128.369 Y81.257 E78.0553
G1 X128.92 Y81.614 E78.08806
G1 X129.424 Y82.036 E78.12085
G1 X129.873 Y82.516 E78.15365
G1 X130.26 Y83.047 E78.18643
G1 X130.701 Y83.891 E78.23394
G1 X140.66 Y107.933 E79.53223
G1 X140.874 Y108.555 E79.56505
G1 X141.011 Y109.197 E79.5978
G1 X141.069 Y109.851 E79.63055
G1 X141.047 Y110.508 E79.66335
G1 X140.946 Y111.157 E79.69612
G1 X140.66 Y112.067 E79.74371
G1 X130.701 Y136.109 E81.042
G1 X130.413 Y136.699 E81.07476
G1 X130.056 Y137.25 E81.10751
G1 X129.634 Y137.754 E81.14031
G1 X129.154 Y138.203 E81.1731
G1 X128.623 Y138.59 E81.20588
G1 X127.779 Y139.031 E81.25339
G1 X103.737 Y148.99 E82.55169
G1 X103.115 Y149.204 E82.5845
G1 X102.473 Y149.341 E82.61725
G1 X101.819 Y149.399 E82.65001
G1 X101.162 Y149.377 E82.68281
G1 X100.513 Y149.276 E82.71557
G1 X99.603 Y148.99 E82.76316
G1 X75.561 Y139.031 E84.06146
G1 X74.971 Y138.743 E84.09421
G1 X74.42 Y138.386 E84.12697
G1 X73.916 Y137.964 E84.15976
G1 X73.467 Y137.484 E84.19256
G1 X73.08 Y136.953 E84.22534
G1 X72.639 Y136.109 E84.27285
G1 X62.68 Y112.067 E85.57114
G1 X62.466 Y111.445 E85.60396
G1 X62.329 Y110.803 E85.63671
G1 X62.271 Y110.149 E85.66947
G1 X62.293 Y109.492 E85.70226
G1 X62.394 Y108.843 E85.73503
G1 X62.68 Y107.933 E85.78262
G1 X72.639 Y83.891 E87.08092
G1 X72.927 Y83.301 E87.11367
G1 X73.284 Y82.75 E87.14643
G1 X73.706 Y82.246 E87.17922
M205 X8.18 Y8.18
G0 F1800 X74.046 Y82.469
M205 X3 Y3
G1 F1200 X74.515 Y82.045 E87.21076
G1 X75.034 Y81.684 E87.2423
G1 X75.715 Y81.339 E87.28039
G1 X99.757 Y71.38 E88.57869
G1 X100.355 Y71.175 E88.61022
G1 X100.974 Y71.048 E88.64175
G1 X101.604 Y70.999 E88.67328
G1 X102.235 Y71.031 E88.7048
G1 X102.858 Y71.142 E88.73637
G1 X103.583 Y71.38 E88.77444
G1 X127.625 Y81.339 E90.07273
G1 X128.193 Y81.617 E90.10428
G1 X128.721 Y81.965 E90.13583
G1 X129.201 Y82.376 E90.16736
G1 X129.625 Y82.845 E90.1989
G1 X129.986 Y83.364 E90.23044
G1 X130.331 Y84.045 E90.26853
G1 X140.29 Y108.087 E91.56682
G1 X140.495 Y108.685 E91.59836
G1 X140.622 Y109.304 E91.62989
G1 X140.671 Y109.934 E91.66141
G1 X140.639 Y110.565 E91.69293
G1 X140.528 Y111.188 E91.72451
G1 X140.29 Y111.913 E91.76258
G1 X130.331 Y135.955 E93.06087
G1 X130.053 Y136.523 E93.09242
G1 X129.705 Y137.051 E93.12397
G1 X129.294 Y137.531 E93.1555
G1 X128.825 Y137.955 E93.18704
G1 X128.306 Y138.316 E93.21858
G1 X127.625 Y138.661 E93.25667
G1 X103.583 Y148.62 E94.55496
G1 X102.985 Y148.825 E94.5865
G1 X102.366 Y148.952 E94.61803
G1 X101.736 Y149.001 E94.64955
G1 X101.105 Y148.969 E94.68107
G1 X100.482 Y148.858 E94.71264
G1 X99.757 Y148.62 E94.75071
G1 X75.715 Y138.661 E96.04901
G1 X75.147 Y138.383 E96.08056
G1 X74.619 Y138.035 E96.11211
