;FLAVOR:Marlin
;TIME:16628
;Filament used: 14.7782m
;Layer height: 0.2
;MINX:52.2
;MINY:52.2
;MINZ:0.3
;MAXX:167.8
;MAXY:167.8
;MAXZ:10.1
;Generated with Cura_SteamEngine master
M140 S90
M105
M190 S90
M104 S240
M105
M109 S240
M82 ;absolute extrusion mode
G21 ;metric values
G90 ;absolute positioning
M82 ;set extruder to absolute mode
M107 ;start with the fan off
G28 X0 Y0 ;move X/Y to min endstops
G28 Z0 ;move Z to min endstops
G1 Z15.0 F60 ;move the platform down 15mm
G92 E0 ;zero the extruded length
G1 F200 E3 ;extrude 3mm of feed stock
G92 E0 ;zero the extruded length again
G1 F60
M117 Printing...
G5
G92 E0
G92 E0
G1 F1500 E-6.5
;LAYER_COUNT:50
;LAYER:0
M107
M204 S300
M205 X8.18 Y8.18
G0 F1800 X55.023 Y55.727 Z0.3
M205 X3 Y3
;TYPE:SKIRT
G1 F1500 E0
G1 F1200 X55.757 Y54.996 E0.05168
G1 X56.053 Y54.738 E0.07127
G1 X56.856 Y54.125 E0.12167
G1 X57.182 Y53.908 E0.14121
G1 X58.032 Y53.417 E0.19018
G1 X58.386 Y53.241 E0.20991
G1 X59.403 Y52.821 E0.2648
G1 X59.774 Y52.698 E0.2843
G1 X60.722 Y52.449 E0.3332
G1 X61.108 Y52.373 E0.35283
G1 X62.089 Y52.244 E0.40219
G1 X62.474 Y52.218 E0.42144
G1 X63 Y52.2 E0.4477
G1 X157.006 Y52.2 E5.13768
G1 X157.532 Y52.218 E5.16394
G1 X157.917 Y52.244 E5.18319
G1 X158.936 Y52.38 E5.23448
G1 X159.327 Y52.459 E5.25438
G1 X160.261 Y52.709 E5.30262
G1 X160.631 Y52.833 E5.32209
G1 X161.64 Y53.252 E5.37659
G1 X161.992 Y53.428 E5.39623
G1 X162.858 Y53.933 E5.44624
G1 X163.185 Y54.153 E5.4659
G1 X163.969 Y54.756 E5.51525
G1 X164.258 Y55.009 E5.53441
G1 X164.981 Y55.732 E5.58542
G1 X165.24 Y56.027 E5.60501
G1 X165.863 Y56.837 E5.65599
G1 X166.081 Y57.163 E5.67556
G1 X166.578 Y58.019 E5.72494
G1 X166.753 Y58.37 E5.74451
G1 X167.168 Y59.372 E5.79861
G1 X167.293 Y59.745 E5.81824
G1 X167.546 Y60.697 E5.86738
G1 X167.623 Y61.083 E5.88702
G1 X167.757 Y62.09 E5.9377
G1 X167.783 Y62.48 E5.9572
G1 X167.8 Y62.999 E5.98311
G1 X167.8 Y157 E10.67284
G1 X167.783 Y157.518 E10.6987
G1 X167.757 Y157.909 E10.71825
G1 X167.623 Y158.917 E10.76898
G1 X167.546 Y159.303 E10.78862
G1 X167.293 Y160.256 E10.83781
G1 X167.169 Y160.626 E10.85728
G1 X166.757 Y161.619 E10.91091
G1 X166.582 Y161.971 E10.93052
G1 X166.085 Y162.83 E10.98004
G1 X165.866 Y163.158 E10.99971
G1 X165.238 Y163.976 E11.05116
G1 X164.977 Y164.273 E11.07089
G1 X164.243 Y165.004 E11.12257
G1 X163.947 Y165.262 E11.14216
G1 X163.144 Y165.875 E11.19256
G1 X162.818 Y166.092 E11.2121
G1 X161.968 Y166.583 E11.26107
G1 X161.614 Y166.759 E11.2808
G1 X160.597 Y167.179 E11.33569
G1 X160.226 Y167.302 E11.35519
G1 X159.278 Y167.551 E11.40409
G1 X158.892 Y167.627 E11.42372
G1 X157.911 Y167.756 E11.47308
G1 X157.526 Y167.782 E11.49233
G1 X157 Y167.8 E11.51859
G1 X62.994 Y167.8 E16.20857
G1 X62.457 Y167.781 E16.23538
G1 X62.066 Y167.754 E16.25493
G1 X61.054 Y167.618 E16.30587
G1 X60.669 Y167.54 E16.32547
G1 X59.739 Y167.291 E16.3735
G1 X59.369 Y167.167 E16.39297
G1 X58.36 Y166.748 E16.44748
G1 X58.008 Y166.572 E16.46711
G1 X57.142 Y166.067 E16.51713
G1 X56.815 Y165.847 E16.53679
G1 X56.028 Y165.241 E16.58634
G1 X55.737 Y164.986 E16.60565
G1 X55.014 Y164.263 E16.65666
G1 X54.757 Y163.97 E16.6761
G1 X54.134 Y163.158 E16.72716
G1 X53.915 Y162.83 E16.74684
G1 X53.418 Y161.971 E16.79635
G1 X53.243 Y161.619 E16.81596
G1 X52.831 Y160.626 E16.8696
G1 X52.707 Y160.256 E16.88907
G1 X52.454 Y159.303 E16.93826
G1 X52.377 Y158.917 E16.9579
G1 X52.243 Y157.91 E17.00858
G1 X52.217 Y157.52 E17.02808
G1 X52.2 Y157.001 E17.05399
G1 X52.2 Y63 E21.74372
G1 X52.217 Y62.482 E21.76957
G1 X52.243 Y62.091 E21.78912
G1 X52.377 Y61.083 E21.83986
G1 X52.454 Y60.697 E21.85949
G1 X52.707 Y59.744 E21.90868
G1 X52.831 Y59.374 E21.92815
G1 X53.243 Y58.381 E21.98179
G1 X53.418 Y58.029 E22.0014
G1 X53.915 Y57.17 E22.05091
G1 X54.134 Y56.842 E22.07059
G1 X54.762 Y56.024 E22.12204
G1 X55.023 Y55.727 E22.14176
M205 X8.18 Y8.18
G0 F1800 X55.323 Y55.991
M205 X3 Y3
G1 F1200 X56.02 Y55.298 E22.1908
G1 X56.316 Y55.04 E22.21039
G1 X57.078 Y54.458 E22.25823
G1 X57.404 Y54.241 E22.27777
G1 X58.21 Y53.775 E22.32421
G1 X58.564 Y53.599 E22.34394
G1 X59.529 Y53.201 E22.39602
G1 X59.9 Y53.078 E22.41552
G1 X60.799 Y52.841 E22.4619
G1 X61.185 Y52.765 E22.48153
G1 X62.116 Y52.643 E22.52837
G1 X63 Y52.6 E22.57253
G1 X157.006 Y52.6 E27.2625
G1 X157.89 Y52.643 E27.30666
G1 X158.857 Y52.773 E27.35534
G1 X159.248 Y52.852 E27.37524
G1 X160.133 Y53.089 E27.42095
G1 X160.503 Y53.213 E27.44042
G1 X161.461 Y53.61 E27.49215
G1 X161.813 Y53.786 E27.51179
G1 X162.635 Y54.265 E27.55925
G1 X162.962 Y54.485 E27.57891
G1 X163.705 Y55.057 E27.62569
G1 X163.994 Y55.31 E27.64486
G1 X164.681 Y55.996 E27.69329
G1 X164.94 Y56.291 E27.71288
G1 X165.53 Y57.06 E27.76123
G1 X165.748 Y57.386 E27.7808
G1 X166.22 Y58.197 E27.82762
G1 X166.395 Y58.548 E27.84718
G1 X166.788 Y59.499 E27.89852
G1 X166.913 Y59.872 E27.91815
G1 X167.154 Y60.775 E27.96477
G1 X167.231 Y61.161 E27.98441
G1 X167.358 Y62.117 E28.03252
G1 X167.4 Y62.999 E28.07658
G1 X167.4 Y157 E32.76631
G1 X167.358 Y157.882 E32.81036
G1 X167.231 Y158.839 E32.85852
G1 X167.154 Y159.225 E32.87816
G1 X166.913 Y160.128 E32.92479
G1 X166.789 Y160.498 E32.94426
G1 X166.399 Y161.441 E32.99517
G1 X166.224 Y161.793 E33.01478
G1 X165.752 Y162.608 E33.06177
G1 X165.533 Y162.936 E33.08144
G1 X164.938 Y163.712 E33.13023
G1 X164.677 Y164.009 E33.14995
G1 X163.98 Y164.702 E33.19899
G1 X163.684 Y164.96 E33.21858
G1 X162.922 Y165.542 E33.26642
G1 X162.596 Y165.759 E33.28595
G1 X161.79 Y166.225 E33.3324
G1 X161.436 Y166.401 E33.35213
G1 X160.471 Y166.799 E33.4042
G1 X160.1 Y166.922 E33.4237
G1 X159.201 Y167.159 E33.47009
G1 X158.815 Y167.235 E33.48972
G1 X157.884 Y167.357 E33.53656
G1 X157 Y167.4 E33.58072
G1 X62.994 Y167.4 E38.27069
G1 X62.484 Y167.382 E38.29615
G1 X62.093 Y167.355 E38.31571
G1 X61.134 Y167.226 E38.36398
G1 X60.749 Y167.148 E38.38358
G1 X59.867 Y166.911 E38.42915
G1 X59.497 Y166.787 E38.44861
G1 X58.539 Y166.39 E38.50035
G1 X58.187 Y166.214 E38.51998
G1 X57.365 Y165.735 E38.56745
G1 X57.038 Y165.515 E38.58711
G1 X56.292 Y164.941 E38.63407
G1 X56.001 Y164.686 E38.65337
G1 X55.315 Y164 E38.70178
G1 X55.058 Y163.707 E38.72122
G1 X54.467 Y162.936 E38.76969
G1 X54.248 Y162.608 E38.78936
G1 X53.776 Y161.793 E38.83635
G1 X53.601 Y161.441 E38.85596
G1 X53.211 Y160.498 E38.90687
G1 X53.087 Y160.128 E38.92634
G1 X52.846 Y159.225 E38.97297
G1 X52.769 Y158.839 E38.99261
G1 X52.642 Y157.883 E39.04072
G1 X52.6 Y157.001 E39.08477
G1 X52.6 Y63 E43.7745
G1 X52.642 Y62.118 E43.81855
G1 X52.769 Y61.161 E43.86672
G1 X52.846 Y60.775 E43.88636
G1 X53.087 Y59.872 E43.93298
G1 X53.211 Y59.502 E43.95245
G1 X53.601 Y58.559 E44.00336
G1 X53.776 Y58.207 E44.02297
G1 X54.248 Y57.392 E44.06996
G1 X54.467 Y57.064 E44.08964
G1 X55.062 Y56.288 E44.13842
G1 X55.323 Y55.991 E44.15815
M205 X8.18 Y8.18
G0 F1800 X55.624 Y56.255
M205 X3 Y3
G1 F1200 X56.283 Y55.599 E44.20454
G1 X56.579 Y55.341 E44.22413
G1 X57.299 Y54.791 E44.26933
G1 X57.625 Y54.574 E44.28887
G1 X58.388 Y54.133 E44.33284
G1 X58.742 Y53.957 E44.35256
G1 X59.655 Y53.581 E44.40182
G1 X60.026 Y53.458 E44.42132
G1 X60.877 Y53.234 E44.46522
G1 X61.263 Y53.158 E44.48485
G1 X62.143 Y53.042 E44.52913
G1 X63 Y53 E44.57194
G1 X157.006 Y53 E49.26192
G1 X157.863 Y53.042 E49.30473
G1 X158.777 Y53.165 E49.35074
G1 X159.168 Y53.244 E49.37064
G1 X160.006 Y53.468 E49.41392
G1 X160.376 Y53.592 E49.43338
G1 X161.282 Y53.968 E49.48232
G1 X161.634 Y54.144 E49.50196
G1 X162.411 Y54.597 E49.54683
G1 X162.738 Y54.817 E49.56649
G1 X163.442 Y55.358 E49.61079
G1 X163.731 Y55.611 E49.62995
G1 X164.38 Y56.26 E49.67574
G1 X164.639 Y56.555 E49.69532
G1 X165.198 Y57.282 E49.74108
G1 X165.416 Y57.608 E49.76064
G1 X165.862 Y58.376 E49.80495
G1 X166.037 Y58.727 E49.82452
G1 X166.409 Y59.626 E49.87306
G1 X166.534 Y59.999 E49.89268
G1 X166.762 Y60.854 E49.93683
G1 X166.839 Y61.24 E49.95647
G1 X166.958 Y62.143 E50.00191
G1 X167 Y62.999 E50.04467
G1 X167 Y157 E54.73439
G1 X166.959 Y157.855 E54.7771
G1 X166.839 Y158.76 E54.82265
G1 X166.762 Y159.146 E54.84228
G1 X166.534 Y160.001 E54.88643
G1 X166.41 Y160.371 E54.9059
G1 X166.041 Y161.263 E54.95406
G1 X165.866 Y161.615 E54.97367
G1 X165.42 Y162.386 E55.01811
G1 X165.201 Y162.714 E55.03778
G1 X164.637 Y163.448 E55.08396
G1 X164.376 Y163.745 E55.10369
G1 X163.717 Y164.401 E55.15008
G1 X163.421 Y164.659 E55.16967
G1 X162.701 Y165.209 E55.21487
G1 X162.375 Y165.426 E55.23441
G1 X161.612 Y165.867 E55.27838
G1 X161.258 Y166.043 E55.2981
G1 X160.345 Y166.419 E55.34736
G1 X159.974 Y166.542 E55.36686
G1 X159.123 Y166.766 E55.41076
G1 X158.737 Y166.842 E55.43039
G1 X157.857 Y166.958 E55.47468
G1 X157 Y167 E55.51748
G1 X62.994 Y167 E60.20746
G1 X62.121 Y166.956 E60.25107
G1 X61.213 Y166.834 E60.29678
G1 X60.828 Y166.756 E60.31638
G1 X59.994 Y166.532 E60.35946
G1 X59.624 Y166.408 E60.37893
G1 X58.718 Y166.032 E60.42787
G1 X58.366 Y165.856 E60.4475
G1 X57.589 Y165.403 E60.49237
G1 X57.262 Y165.183 E60.51203
G1 X56.556 Y164.64 E60.55647
G1 X56.265 Y164.385 E60.57577
G1 X55.616 Y163.736 E60.62156
G1 X55.359 Y163.443 E60.64101
G1 X54.799 Y162.714 E60.68687
G1 X54.58 Y162.386 E60.70655
G1 X54.134 Y161.615 E60.75098
G1 X53.959 Y161.263 E60.7706
G1 X53.59 Y160.371 E60.81876
G1 X53.466 Y160.001 E60.83822
G1 X53.238 Y159.146 E60.88237
G1 X53.161 Y158.76 E60.90201
G1 X53.042 Y157.857 E60.94745
G1 X53 Y157.001 E60.99021
G1 X53 Y63 E65.67993
G1 X53.041 Y62.145 E65.72264
G1 X53.161 Y61.24 E65.76819
G1 X53.238 Y60.854 E65.78782
G1 X53.466 Y59.999 E65.83197
G1 X53.59 Y59.629 E65.85144
G1 X53.959 Y58.737 E65.8996
G1 X54.134 Y58.385 E65.91921
G1 X54.58 Y57.614 E65.96365
G1 X54.799 Y57.286 E65.98332
G1 X55.363 Y56.552 E66.0295
G1 X55.624 Y56.255 E66.04923
M205 X8.18 Y8.18
G0 F1800 X55.924 Y56.519
M205 X3 Y3
G1 F1200 X56.545 Y55.901 E66.09294
G1 X56.841 Y55.643 E66.11253
G1 X57.521 Y55.124 E66.15521
G1 X57.847 Y54.907 E66.17474
G1 X58.566 Y54.491 E66.21619
G1 X58.92 Y54.315 E66.23591
G1 X59.781 Y53.96 E66.28237
G1 X60.152 Y53.837 E66.30187
G1 X60.954 Y53.626 E66.34325
G1 X61.34 Y53.55 E66.36287
G1 X62.17 Y53.441 E66.40464
G1 X63 Y53.4 E66.4461
G1 X157.006 Y53.4 E71.13608
G1 X157.836 Y53.441 E71.17754
G1 X158.698 Y53.557 E71.22093
G1 X159.089 Y53.636 E71.24083
G1 X159.879 Y53.847 E71.28163
G1 X160.249 Y53.971 E71.30109
G1 X161.104 Y54.326 E71.34728
G1 X161.456 Y54.502 E71.36691
G1 X162.188 Y54.929 E71.40919
G1 X162.515 Y55.149 E71.42886
G1 X163.178 Y55.659 E71.47059
G1 X163.467 Y55.912 E71.48975
G1 X164.08 Y56.524 E71.53297
G1 X164.339 Y56.819 E71.55255
G1 X164.865 Y57.504 E71.59564
G1 X165.083 Y57.83 E71.6152
G1 X165.504 Y58.554 E71.65699
G1 X165.679 Y58.905 E71.67655
G1 X166.03 Y59.753 E71.72234
G1 X166.155 Y60.126 E71.74197
G1 X166.369 Y60.932 E71.78357
G1 X166.446 Y61.318 E71.80321
G1 X166.559 Y62.17 E71.84609
G1 X166.6 Y62.999 E71.8875
G1 X166.6 Y157 E76.57723
G1 X166.559 Y157.829 E76.61864
G1 X166.446 Y158.682 E76.66157
G1 X166.369 Y159.068 E76.6812
G1 X166.155 Y159.874 E76.72281
G1 X166.031 Y160.244 E76.74228
G1 X165.683 Y161.085 E76.78768
G1 X165.508 Y161.437 E76.8073
G1 X165.087 Y162.164 E76.84921
G1 X164.868 Y162.492 E76.86888
G1 X164.337 Y163.184 E76.9124
G1 X164.076 Y163.481 E76.93213
G1 X163.455 Y164.099 E76.97584
G1 X163.159 Y164.357 E76.99543
G1 X162.479 Y164.876 E77.0381
G1 X162.153 Y165.093 E77.05764
G1 X161.434 Y165.509 E77.09908
G1 X161.08 Y165.685 E77.11881
G1 X160.219 Y166.04 E77.16527
G1 X159.848 Y166.163 E77.18477
G1 X159.046 Y166.374 E77.22614
G1 X158.66 Y166.45 E77.24577
G1 X157.83 Y166.559 E77.28754
G1 X157 Y166.6 E77.329
G1 X62.994 Y166.6 E82.01897
G1 X62.148 Y166.557 E82.06124
G1 X61.292 Y166.442 E82.10433
G1 X60.907 Y166.364 E82.12392
G1 X60.121 Y166.153 E82.16453
G1 X59.751 Y166.029 E82.18399
G1 X58.896 Y165.674 E82.23018
G1 X58.544 Y165.498 E82.24981
G1 X57.812 Y165.071 E82.29209
G1 X57.485 Y164.851 E82.31176
G1 X56.819 Y164.339 E82.35367
G1 X56.528 Y164.084 E82.37297
G1 X55.916 Y163.472 E82.41615
G1 X55.659 Y163.179 E82.43559
G1 X55.132 Y162.492 E82.47879
G1 X54.913 Y162.164 E82.49847
G1 X54.492 Y161.437 E82.54038
G1 X54.317 Y161.085 E82.55999
G1 X53.969 Y160.244 E82.6054
G1 X53.845 Y159.874 E82.62487
G1 X53.631 Y159.068 E82.66647
G1 X53.554 Y158.682 E82.68611
G1 X53.441 Y157.83 E82.72899
G1 X53.4 Y157.001 E82.7704
G1 X53.4 Y63 E87.46013
G1 X53.441 Y62.171 E87.50154
G1 X53.554 Y61.318 E87.54447
G1 X53.631 Y60.932 E87.5641
G1 X53.845 Y60.126 E87.60571
G1 X53.969 Y59.756 E87.62518
G1 X54.317 Y58.915 E87.67058
G1 X54.492 Y58.563 E87.6902
G1 X54.913 Y57.836 E87.73211
G1 X55.132 Y57.508 E87.75179
G1 X55.663 Y56.816 E87.7953
G1 X55.924 Y56.519 E87.81503
M205 X8.18 Y8.18
G0 F1800 X56.225 Y56.783
M205 X3 Y3
G1 F1200 X56.808 Y56.202 E87.85609
G1 X57.104 Y55.944 E87.87568
G1 X57.743 Y55.457 E87.91576
G1 X58.069 Y55.24 E87.9353
G1 X58.744 Y54.849 E87.97422
G1 X59.098 Y54.673 E87.99394
G1 X59.907 Y54.34 E88.03759
G1 X60.278 Y54.217 E88.05709
G1 X61.031 Y54.019 E88.09593
G1 X61.417 Y53.943 E88.11556
G1 X62.197 Y53.84 E88.15481
G1 X63 Y53.8 E88.19493
G1 X157.006 Y53.8 E92.8849
G1 X157.809 Y53.84 E92.92502
G1 X158.619 Y53.949 E92.96579
G1 X159.01 Y54.028 E92.98569
G1 X159.752 Y54.226 E93.02401
G1 X160.122 Y54.35 E93.04347
G1 X160.925 Y54.684 E93.08686
G1 X161.277 Y54.86 E93.1065
G1 X161.965 Y55.261 E93.14623
G1 X162.292 Y55.481 E93.16589
G1 X162.915 Y55.96 E93.2051
G1 X163.204 Y56.213 E93.22426
G1 X163.779 Y56.787 E93.26479
G1 X164.038 Y57.082 E93.28438
G1 X164.533 Y57.727 E93.32494
G1 X164.751 Y58.053 E93.34451
G1 X165.146 Y58.733 E93.38374
G1 X165.321 Y59.084 E93.40331
G1 X165.651 Y59.88 E93.4463
G1 X165.776 Y60.253 E93.46592
G1 X165.977 Y61.01 E93.505
G1 X166.054 Y61.396 E93.52464
G1 X166.16 Y62.197 E93.56495
G1 X166.2 Y62.999 E93.60501
G1 X166.2 Y157 E98.29474
G1 X166.16 Y157.802 E98.3348
G1 X166.054 Y158.604 E98.37516
G1 X165.977 Y158.99 E98.3948
G1 X165.776 Y159.747 E98.43387
G1 X165.652 Y160.117 E98.45334
G1 X165.325 Y160.907 E98.496
G1 X165.15 Y161.259 E98.51561
G1 X164.754 Y161.942 E98.555
G1 X164.535 Y162.27 E98.57467
G1 X164.036 Y162.92 E98.61556
G1 X163.775 Y163.217 E98.63528
G1 X163.192 Y163.798 E98.67634
G1 X162.896 Y164.056 E98.69593
G1 X162.257 Y164.543 E98.73602
G1 X161.931 Y164.76 E98.75555
G1 X161.256 Y165.151 E98.79447
G1 X160.902 Y165.327 E98.8142
G1 X160.093 Y165.66 E98.85784
G1 X159.722 Y165.783 E98.87734
G1 X158.969 Y165.981 E98.91619
G1 X158.583 Y166.057 E98.93581
G1 X157.803 Y166.16 E98.97507
G1 X157 Y166.2 E99.01518
G1 X62.994 Y166.2 E103.70516
G1 X62.176 Y166.158 E103.74602
G1 X61.372 Y166.05 E103.78649
G1 X60.987 Y165.972 E103.80609
G1 X60.248 Y165.774 E103.84426
G1 X59.878 Y165.65 E103.86373
G1 X59.075 Y165.316 E103.90712
G1 X58.723 Y165.14 E103.92675
G1 X58.035 Y164.739 E103.96648
G1 X57.708 Y164.519 E103.98614
G1 X57.083 Y164.038 E104.02549
G1 X56.792 Y163.783 E104.04479
G1 X56.217 Y163.208 E104.08536
G1 X55.96 Y162.915 E104.10481
G1 X55.465 Y162.27 E104.14537
G1 X55.246 Y161.942 E104.16505
G1 X54.85 Y161.259 E104.20443
G1 X54.675 Y160.907 E104.22405
G1 X54.348 Y160.117 E104.2667
G1 X54.224 Y159.747 E104.28617
G1 X54.023 Y158.99 E104.32525
G1 X53.946 Y158.604 E104.34488
G1 X53.84 Y157.803 E104.38519
G1 X53.8 Y157.001 E104.42526
G1 X53.8 Y63 E109.11498
G1 X53.84 Y62.198 E109.15505
G1 X53.946 Y61.396 E109.19541
G1 X54.023 Y61.01 E109.21504
G1 X54.224 Y60.253 E109.25412
G1 X54.348 Y59.883 E109.27359
G1 X54.675 Y59.093 E109.31624
G1 X54.85 Y58.741 E109.33586
G1 X55.246 Y58.058 E109.37524
G1 X55.465 Y57.73 E109.39492
G1 X55.964 Y57.08 E109.4358
G1 X56.225 Y56.783 E109.45553
M205 X8.18 Y8.18
G0 F1800 X56.525 Y57.047
M205 X3 Y3
G1 F1200 X57.071 Y56.504 E109.49395
G1 X57.367 Y56.246 E109.51354
G1 X57.964 Y55.79 E109.55101
G1 X58.29 Y55.573 E109.57055
G1 X58.922 Y55.207 E109.60699
G1 X59.276 Y55.031 E109.62671
G1 X60.033 Y54.72 E109.66754
G1 X60.404 Y54.597 E109.68704
G1 X61.109 Y54.411 E109.72342
G1 X61.495 Y54.335 E109.74305
G1 X62.224 Y54.239 E109.77973
G1 X63 Y54.2 E109.81849
G1 X157.006 Y54.2 E114.50847
G1 X157.782 Y54.239 E114.54724
G1 X158.54 Y54.341 E114.58539
G1 X158.931 Y54.42 E114.60529
G1 X159.625 Y54.606 E114.64114
G1 X159.995 Y54.73 E114.66061
G1 X160.746 Y55.041 E114.70116
G1 X161.098 Y55.217 E114.7208
